X:1
T: Farmer there lived in the North Country
M:6/8
L:1/8
K:G
 D| GGG GFG| A2 F G3| D3 G3| F3 D2 D| GGG GFF| A2 F G2 G| c2 c B2 B|\
 AAA GGG|e-e e ddd| c2 c BBB| ADD D2 F| G3- G2||
